svg/u1f3c9.svg

<svg viewBox="0 0 128 128" xmlns="http://www.w3.org/2000/svg">
  <path d="M91.48,48.66c-0.93,1.87-76.29,67.45-76.29,67.45s5.41,9.12,27.59,8.18 c20.14-0.85,41.23-10.12,59.9-31.77s21.44-43.69,20.55-56.78c-1.14-16.76-7.58-21.11-9.26-22.79 C112.3,11.28,91.48,48.66,91.48,48.66z" fill="#CF6F24"/>
  <path d="M31.01,31.49C12.38,49.64-7.44,90.56,12.9,114.08c7.93,9.17,28.75,6.28,48.16-3.55 c13.22-6.69,25.35-17.54,33.78-26.5C115.56,62,127.43,19.36,109.96,9.55C88.68-2.39,56.77,6.38,31.01,31.49z" fill="#E07F14"/>
  <path d="M11.45,112.28c-1.7-9.19-0.49-15.3,3.62-24.97c6.3-14.83,22.99-35.94,34.84-47 C62.16,28.89,73.8,19.72,90.81,12.12c12.69-5.67,16.7-4.21,16.99-4.16c0.45,0.07,2.79,0.98,3.15,1.95 c0.19,0.51,0.58,1.26-0.58,1.18c-0.04-0.01-6.26-0.31-17.84,4.86c-16.48,7.36-27.81,16.29-39.74,27.43 C41.25,54.15,25.03,74.64,18.94,88.96c-3.78,8.91-4.97,18.04-3.41,26.42c0.21,1.14-0.81,0.86-1.79,0.33 C12.85,115.22,11.64,113.3,11.45,112.28z" fill="#AF5912"/>
  <path d="M32.67,76.02c-2.81,0-5.45-0.81-7.7-2.43c-3.07-2.22-3.79-4.93-4.05-8.49 c-0.69-9.55,8.71-21.2,17.17-29.39C55.68,18.7,68.38,13.2,76.66,19.97c3.91,3.2,5.29,7.95,3.7,12.72c-1.5,4.5-6.5,9.4-13.41,16.18 c-2.01,1.97-4.09,4.01-6.29,6.24l0,0c-1.62,1.65-3.26,3.47-4.98,5.39c-4.34,4.83-8.82,9.83-13.84,12.8 C38.79,75.12,35.64,76.02,32.67,76.02z M68.29,20.56c-6.81,0-16.24,5.8-28.18,17.35C28.91,48.75,22.99,58.24,23.45,64.64 c0.18,2.51,1.35,4.51,3.57,6.12c3.46,2.5,8.33,2.33,13.04-0.46c4.56-2.7,8.86-7.49,13.02-12.13c1.75-1.96,3.41-3.81,5.1-5.51 c2.22-2.25,4.31-4.3,6.33-6.28c6.32-6.19,11.31-11.09,12.54-14.79c1.15-3.44,0.22-6.6-2.6-8.91 C72.72,21.27,70.67,20.56,68.29,20.56z M59.42,53.89L59.42,53.89L59.42,53.89z" fill="#AF5912"/>
  <path d="M39.55,42.92c-1.34,1.46-1.4,3.47,0.86,5.17c2.54,1.92,4.57,3.71,5.9,4.91 c1.36,1.22,3.71,2.52,5.63,0.93c1.48-1.23,1.39-3.84-0.07-5.24c-1.24-1.18-6.2-5.13-7.23-5.9C43.33,41.8,41.08,41.27,39.55,42.92z" fill="#713604"/>
  <path d="M47.09,35.06c-1.79,1.72-0.78,3.88,0.68,4.94c1.46,1.06,4.71,3.78,5.77,4.71 c1.06,0.93,3.91,4.18,6.63,1.39c2.05-2.1-0.36-4.27-1.46-5.37c-1.36-1.38-5.08-4.5-6.39-5.43C51.2,34.52,48.82,33.4,47.09,35.06z" fill="#713604"/>
  <path d="M55.55,28.35c-1.62,1.74-0.47,3.67,0.98,4.7c1.45,1.03,4.19,3.62,5.37,4.6 c1.19,0.98,4.05,3.69,6.05,1.45c1.85-2.08-0.04-4.13-1.4-5.48c-1.49-1.48-4.57-4.17-6.3-5.32C59.29,27.66,57.09,26.69,55.55,28.35z" fill="#713604"/>
  <path d="M63.89,22.27c-0.95,0.98-1.37,2.64,0.36,4.15c2.14,1.87,5.38,4.59,6.15,5.32 c1.29,1.24,3.58,1.76,4.7,0.26c1.29-1.73,0.15-3.45-1.45-5.44c-1.08-1.34-4.24-3.73-5.22-4.35C67.45,21.6,65.11,21,63.89,22.27z" fill="#713604"/>
  <path d="M32.25,51.17c-1.48,1.86-0.72,3.67,1.34,5.27c2.07,1.6,5.27,4.13,6.51,4.86s3.02,1.8,4.75-0.21 c1.96-2.27-0.41-4.44-2.17-5.99c-1.29-1.14-4.33-3.39-5.79-4.34C35.55,49.88,33.43,49.67,32.25,51.17z" fill="#713604"/>
  <path d="M25.51,59.09c-0.88,1.12-1.43,3.09,1,5.21c2.43,2.12,4.91,3.88,5.89,4.65 c0.98,0.78,4.19,2.02,5.79-0.05c1.6-2.07-0.05-3.82-1.76-5.01c-1.71-1.19-5.94-4.34-6.77-5.06S26.85,57.38,25.51,59.09z" fill="#713604"/>
</svg>

<svg viewBox="0 0 128 128" xmlns="http://www.w3.org/2000/svg">
  <defs/>
  <path d="M91.48,48.66 C90.55,50.53 15.19,116.11 15.19,116.11 C15.19,116.11 20.6,125.23 42.78,124.29 C62.92,123.44 84.01,114.17 102.68,92.52 C121.35,70.87 124.12,48.83 123.23,35.74 C122.09,18.98 115.65,14.63 113.97,12.95 C112.3,11.28 91.48,48.66 91.48,48.66 Z" fill="#CF6F24"/>
  <path d="M31.01,31.49 C12.38,49.64 -7.44,90.56 12.9,114.08 C20.83,123.25 41.65,120.36 61.06,110.53 C74.28,103.84 86.41,92.99 94.84,84.03 C115.56,62 127.43,19.36 109.96,9.55 C88.68,-2.39 56.77,6.38 31.01,31.49 Z" fill="#E07F14"/>
  <path d="M11.45,112.28 C9.75,103.09 10.96,96.98 15.07,87.31 C21.37,72.48 38.06,51.37 49.91,40.31 C62.16,28.89 73.8,19.72 90.81,12.12 C103.5,6.45 107.51,7.91 107.8,7.96 C108.25,8.03 110.59,8.94 110.95,9.91 C111.14,10.42 111.53,11.17 110.37,11.09 C110.33,11.08 104.11,10.78 92.53,15.95 C76.05,23.31 64.72,32.24 52.79,43.38 C41.25,54.15 25.03,74.64 18.94,88.96 C15.16,97.87 13.97,107 15.53,115.38 C15.74,116.52 14.72,116.24 13.74,115.71 C12.85,115.22 11.64,113.3 11.45,112.28 Z" fill="#AF5912"/>
  <path d="M32.67,76.02 C29.86,76.02 27.22,75.21 24.97,73.59 C21.9,71.37 21.18,68.66 20.92,65.1 C20.23,55.55 29.63,43.9 38.09,35.71 C55.68,18.7 68.38,13.2 76.66,19.97 C80.57,23.17 81.95,27.92 80.36,32.69 C78.86,37.19 73.86,42.09 66.95,48.87 C64.94,50.84 62.86,52.88 60.66,55.11 L60.66,55.11 C59.04,56.76 57.4,58.58 55.68,60.5 C51.34,65.33 46.86,70.33 41.84,73.3 C38.79,75.12 35.64,76.02 32.67,76.02 Z M68.29,20.56 C61.48,20.56 52.05,26.36 40.11,37.91 C28.91,48.75 22.99,58.24 23.45,64.64 C23.63,67.15 24.8,69.15 27.02,70.76 C30.48,73.26 35.35,73.09 40.06,70.3 C44.62,67.6 48.92,62.81 53.08,58.17 C54.83,56.21 56.49,54.36 58.18,52.66 C60.4,50.41 62.49,48.36 64.51,46.38 C70.83,40.19 75.82,35.29 77.05,31.59 C78.2,28.15 77.27,24.99 74.45,22.68 C72.72,21.27 70.67,20.56 68.29,20.56 Z" fill="#AF5912"/>
  <path d="M39.55,42.92 C38.21,44.38 38.15,46.39 40.41,48.09 C42.95,50.01 44.98,51.8 46.31,53 C47.67,54.22 50.02,55.52 51.94,53.93 C53.42,52.7 53.33,50.09 51.87,48.69 C50.63,47.51 45.67,43.56 44.64,42.79 C43.33,41.8 41.08,41.27 39.55,42.92 Z" fill="#713604"/>
  <path d="M47.09,35.06 C45.3,36.78 46.31,38.94 47.77,40 C49.23,41.06 52.48,43.78 53.54,44.71 C54.6,45.64 57.45,48.89 60.17,46.1 C62.22,44 59.81,41.83 58.71,40.73 C57.35,39.35 53.63,36.23 52.32,35.3 C51.2,34.52 48.82,33.4 47.09,35.06 Z" fill="#713604"/>
  <path d="M55.55,28.35 C53.93,30.09 55.08,32.02 56.53,33.05 C57.98,34.08 60.72,36.67 61.9,37.65 C63.09,38.63 65.95,41.34 67.95,39.1 C69.8,37.02 67.91,34.97 66.55,33.62 C65.06,32.14 61.98,29.45 60.25,28.3 C59.29,27.66 57.09,26.69 55.55,28.35 Z" fill="#713604"/>
  <path d="M63.89,22.27 C62.94,23.25 62.52,24.91 64.25,26.42 C66.39,28.29 69.63,31.01 70.4,31.74 C71.69,32.98 73.98,33.5 75.1,32 C76.39,30.27 75.25,28.55 73.65,26.56 C72.57,25.22 69.41,22.83 68.43,22.21 C67.45,21.6 65.11,21 63.89,22.27 Z" fill="#713604"/>
  <path d="M32.25,51.17 C30.77,53.03 31.53,54.84 33.59,56.44 C35.66,58.04 38.86,60.57 40.1,61.3 C41.34,62.03 43.12,63.1 44.85,61.09 C46.81,58.82 44.44,56.65 42.68,55.1 C41.39,53.96 38.35,51.71 36.89,50.76 C35.55,49.88 33.43,49.67 32.25,51.17 Z" fill="#713604"/>
  <path d="M25.51,59.09 C24.63,60.21 24.08,62.18 26.51,64.3 C28.94,66.42 31.42,68.18 32.4,68.95 C33.38,69.73 36.59,70.97 38.19,68.9 C39.79,66.83 38.14,65.08 36.43,63.89 C34.72,62.7 30.49,59.55 29.66,58.83 C28.83,58.11 26.85,57.38 25.51,59.09 Z" fill="#713604"/>
</svg>
